assets/img/opensea.svg

<svg fill="none" height="34" viewBox="0 0 34 34" width="34" xmlns="http://www.w3.org/2000/svg" xmlns:xlink="http://www.w3.org/1999/xlink"><clipPath id="a"><path d="m0 0h34v34h-34z"/></clipPath><g clip-path="url(#a)"><path d="m34 17.0002c0 9.3884-7.6117 17-17 17-9.38831 0-17-7.6116-17-17 0-9.38826 7.61169-16.99995586 17-16.99995586 9.3903 0 17 7.61169586 17 16.99995586z" fill="#000"/><g fill="#fff"><path d="m8.38707 17.5711.07336-.1153 4.42237-6.9182c.0646-.1013.2166-.0908.2655.0192.7388 1.6558 1.3763 3.715 1.0776 4.997-.1275.5274-.4768 1.2418-.8698 1.902-.0506.0961-.1065.1904-.1659.2812-.0279.0419-.0751.0664-.1258.0664h-4.5481c-.12224 0-.19383-.1327-.12923-.2323z"/><path d="m28.0991 18.857v1.0951c0 .0629-.0384.1188-.0943.1432-.3423.1468-1.5143.6847-2.0016 1.3624-1.2436 1.7309-2.1937 4.2058-4.3176 4.2058h-8.8604c-3.1404 0-5.68519-2.5535-5.68519-5.7044v-.1013c0-.0838.06812-.1519.15198-.1519h4.93931c.0978 0 .1695.0908.1607.1868-.0349.3214.0245.6498.1764.9485.2935.5955.9013.9676 1.558.9676h2.4452v-1.9091h-2.4173c-.124 0-.1973-.1432-.1257-.2445.0262-.0402.0559-.0821.0873-.1292.2288-.3249.5554-.8297.8803-1.4043.2218-.3877.4366-.8017.6096-1.2174.0349-.0751.0629-.1519.0908-.227.0472-.1328.096-.2568.131-.3808.0349-.1048.0628-.2148.0908-.3179.0821-.3528.117-.7265.117-1.1143 0-.1519-.007-.3109-.0209-.4629-.007-.1659-.028-.3318-.049-.4977-.0139-.1467-.0401-.2917-.0681-.4436-.0349-.2219-.0838-.4419-.1397-.6638l-.0192-.0838c-.0419-.1519-.0768-.2969-.1258-.4489-.1379-.4768-.2969-.9414-.4646-1.3763-.0611-.1729-.131-.3388-.2008-.5047-.1031-.2498-.2079-.47686-.3039-.6917-.0489-.09781-.0909-.18689-.1328-.27771-.0471-.10306-.096-.20608-.1449-.30392-.035-.0751-.0751-.14495-.1031-.2148l-.2986-.55194c-.042-.0751.0279-.16418.11-.14148l1.8688.50653h.0053c.0035 0 .0052.00174.007.00174l.2463.06811.2707.07684.0995.02796v-1.11082c0-.53622.4297-.97112.9607-.97112.2654 0 .5065.10827.6794.2847.1729.17642.2812.41744.2812.68642v1.64877l.1991.05587c.0157.00526.0314.01224.0454.02271.0489.03668.1188.09085.2078.15719.0699.05591.145.12403.2358.19388.1799.14499.3947.33187.6305.54667.0629.0542.1241.1101.1799.166.304.2829.6445.6148.9694.9815.0908.1031.1799.2079.2707.3179.0909.1118.1869.2218.2708.3319.11.1467.2287.2986.3318.4576.0489.0751.1048.1519.152.227.1327.2009.2497.4088.3615.6166.0472.096.0961.2008.138.3039.124.2777.2218.5606.2847.8436.0192.0611.0332.1275.0402.1869v.0139c.0209.0839.0279.173.0349.2638.0279.2899.0139.5798-.0489.8715-.0262.1241-.0611.2411-.1031.3651-.0419.1188-.0838.2427-.1379.3598-.1048.2427-.2289.4855-.3756.7126-.0471.0838-.103.1729-.1589.2567-.0611.0891-.124.173-.1799.255-.0769.1048-.1589.2149-.2428.3127-.0751.103-.152.2061-.2358.2969-.117.138-.2288.269-.3458.3947-.0699.0821-.145.166-.2218.2411-.0751.0838-.152.1589-.2218.2287-.1171.1171-.2149.2079-.297.283l-.1921.1764c-.0279.0245-.0646.0384-.103.0384h-1.4881v1.9091h1.8723c.4192 0 .8174-.1485 1.1388-.421.11-.096.5903-.5117 1.158-1.1387.0192-.021.0437-.0367.0716-.0437l5.1716-1.4951c.0961-.028.1939.0454.1939.1467z"/></g></g></svg>

<svg width="34" height="34" viewBox="0 0 34 34" fill="none" xmlns="http://www.w3.org/2000/svg">
<g clip-path="url(#clip0_407_5194)">
<path d="M34 17.0002C34 26.3886 26.3883 34.0002 17 34.0002C7.61169 34.0002 0 26.3886 0 17.0002C0 7.61194 7.61169 0.000244141 17 0.000244141C26.3903 0.000244141 34 7.61194 34 17.0002Z" fill="black"/>
<path d="M8.38707 17.5711L8.46043 17.4558L12.8828 10.5376C12.9474 10.4363 13.0994 10.4468 13.1483 10.5568C13.8871 12.2126 14.5246 14.2718 14.2259 15.5538C14.0984 16.0812 13.7491 16.7956 13.3561 17.4558C13.3055 17.5519 13.2496 17.6462 13.1902 17.737C13.1623 17.7789 13.1151 17.8034 13.0644 17.8034H8.5163C8.39406 17.8034 8.32247 17.6707 8.38707 17.5711Z" fill="white"/>
<path d="M28.0991 18.857V19.9521C28.0991 20.015 28.0607 20.0709 28.0048 20.0953C27.6625 20.2421 26.4905 20.78 26.0032 21.4577C24.7596 23.1886 23.8095 25.6635 21.6856 25.6635H12.8252C9.6848 25.6635 7.14001 23.11 7.14001 19.9591V19.8578C7.14001 19.774 7.20813 19.7059 7.29199 19.7059H12.2313C12.3291 19.7059 12.4008 19.7967 12.392 19.8927C12.3571 20.2141 12.4165 20.5425 12.5684 20.8412C12.8619 21.4367 13.4697 21.8088 14.1264 21.8088H16.5716V19.8997H14.1543C14.0303 19.8997 13.957 19.7565 14.0286 19.6552C14.0548 19.615 14.0845 19.5731 14.1159 19.526C14.3447 19.2011 14.6713 18.6963 14.9962 18.1217C15.218 17.734 15.4328 17.32 15.6058 16.9043C15.6407 16.8292 15.6687 16.7524 15.6966 16.6773C15.7438 16.5445 15.7926 16.4205 15.8276 16.2965C15.8625 16.1917 15.8904 16.0817 15.9184 15.9786C16.0005 15.6258 16.0354 15.2521 16.0354 14.8643C16.0354 14.7124 16.0284 14.5534 16.0145 14.4014C16.0075 14.2355 15.9865 14.0696 15.9655 13.9037C15.9516 13.757 15.9254 13.612 15.8974 13.4601C15.8625 13.2382 15.8136 13.0182 15.7577 12.7963L15.7385 12.7125C15.6966 12.5606 15.6617 12.4156 15.6127 12.2636C15.4748 11.7868 15.3158 11.3222 15.1481 10.8873C15.087 10.7144 15.0171 10.5485 14.9473 10.3826C14.8442 10.1328 14.7394 9.90574 14.6434 9.6909C14.5945 9.59309 14.5525 9.50401 14.5106 9.41319C14.4635 9.31013 14.4146 9.20711 14.3657 9.10927C14.3307 9.03417 14.2906 8.96432 14.2626 8.89447L13.964 8.34253C13.922 8.26743 13.9919 8.17835 14.074 8.20105L15.9428 8.70758H15.9481C15.9516 8.70758 15.9533 8.70932 15.9551 8.70932L16.2014 8.77743L16.4721 8.85427L16.5716 8.88223V7.77141C16.5716 7.23519 17.0013 6.80029 17.5323 6.80029C17.7977 6.80029 18.0388 6.90856 18.2117 7.08499C18.3846 7.26141 18.4929 7.50243 18.4929 7.77141V9.42018L18.692 9.47605C18.7077 9.48131 18.7234 9.48829 18.7374 9.49876C18.7863 9.53544 18.8562 9.58961 18.9452 9.65595C19.0151 9.71186 19.0902 9.77998 19.181 9.84983C19.3609 9.99482 19.5757 10.1817 19.8115 10.3965C19.8744 10.4507 19.9356 10.5066 19.9914 10.5625C20.2954 10.8454 20.6359 11.1773 20.9608 11.544C21.0516 11.6471 21.1407 11.7519 21.2315 11.8619C21.3224 11.9737 21.4184 12.0837 21.5023 12.1938C21.6123 12.3405 21.731 12.4924 21.8341 12.6514C21.883 12.7265 21.9389 12.8033 21.9861 12.8784C22.1188 13.0793 22.2358 13.2872 22.3476 13.495C22.3948 13.591 22.4437 13.6958 22.4856 13.7989C22.6096 14.0766 22.7074 14.3595 22.7703 14.6425C22.7895 14.7036 22.8035 14.77 22.8105 14.8294V14.8433C22.8314 14.9272 22.8384 15.0163 22.8454 15.1071C22.8733 15.397 22.8593 15.6869 22.7965 15.9786C22.7703 16.1027 22.7354 16.2197 22.6934 16.3437C22.6515 16.4625 22.6096 16.5864 22.5555 16.7035C22.4507 16.9462 22.3266 17.189 22.1799 17.4161C22.1328 17.4999 22.0769 17.589 22.021 17.6728C21.9599 17.7619 21.897 17.8458 21.8411 17.9278C21.7642 18.0326 21.6822 18.1427 21.5983 18.2405C21.5232 18.3435 21.4463 18.4466 21.3625 18.5374C21.2455 18.6754 21.1337 18.8064 21.0167 18.9321C20.9468 19.0142 20.8717 19.0981 20.7949 19.1732C20.7198 19.257 20.6429 19.3321 20.5731 19.4019C20.456 19.519 20.3582 19.6098 20.2761 19.6849L20.084 19.8613C20.0561 19.8858 20.0194 19.8997 19.981 19.8997H18.4929V21.8088H20.3652C20.7844 21.8088 21.1826 21.6603 21.504 21.3878C21.614 21.2918 22.0943 20.8761 22.662 20.2491C22.6812 20.2281 22.7057 20.2124 22.7336 20.2054L27.9052 18.7103C28.0013 18.6823 28.0991 18.7557 28.0991 18.857Z" fill="white"/>
</g>
<defs>
<clipPath id="clip0_407_5194">
<rect width="34" height="34" fill="white"/>
</clipPath>
</defs>
</svg>
